X:1
T:Major Nicholson's Fancy
M:6/8
L:1/8
Q:80
C:
S:Jig
K:HP
|: | Adfafd | \
GBdgdB | \
Acegeg |
fdBA3 | \
Adfafd | \
GBdgdB |
Acegeg | \
fdd|1 d3|2 d2 | :| \
|: g |
fdafdB | \
GBdgdB | \
Acegeg |
fdBA2g | \
fdafdB | \
GBdgdB |
Acegeg | \
fdd|1 d3|2 d2 | :| \
|: f |
dfAfdf | \
GBGdGB | \
Acegeg |
fdBA2f | \
dfAfdf | \
GBGdGB |
Acegeg | \
fddd2 | :| \
|: g |
agafdd | \
GBBdBB | \
Acegeg |
fdBA2g | \
agafdd | \
GBBdBB |
Acegeg | \
fdd|1 d2|2 d3 | :|
